desc: gianniMIDI wtf

in_pin:none
out_pin:none

slider1:0<0,128,1>offset
slider2:0<0,127,1>status
slider3:0<0,127,1>status hi
slider4:0<0,127,1>status lo
slider5:0<0,127,1>data1
slider6:0<0,127,1>data2
slider7:0<0,12,1>modulo12

import gianni-lib.jsfx-inc

@init

val = 0;

@block

while (msg.recv())
(
  msg.isNoteOn() && val.writeBits(7, 7 * msg.note(), msg.note());
  msg.isNoteOff() && readout = val.readBits(7, 7 * msg.note());
  one = val.readBits(7, 7);
);
