desc: Force To Channel (GianniMIDI)
in_pin:none
out_pin:none

import my-lib.jsfx-inc

slider1:1<1,16,1>channel


@slider

channel = slider1 - 1;


@block

while(msg.recv())
(
  msg.statusLo = channel;
  msg.send();
);
