desc: Note On Probablility (GianniMIDI)

in_pin:none
out_pin:none

slider1:0<0,100,1>probablility

import my-lib.jsfx-inc


@block

while (msg.recv())
(
  !msg.isNoteOn() ? msg.send() :
    (rand(100) <= slider1) ? msg.send();
);
