desc: gianniMIDI note off eater

in_pin:none
out_pin:none

import gianni-lib.jsfx-inc

@init

@block

while (midirecv(m0, m1, m2, m3))
(
  msg.get(m0, m1, m2, m3);
  msg.statusHi != 8 && msg.send(); 
);
