desc: gianniMIDI note triggered randomizer
in_pin:none
out_pin:none

slider1:0<0,1,.001>output
slider2:16<0,32,1>increment by 1/n (0 = smooth)

import gianni-lib.jsfx-inc

@slider
slider1 = slider2 > 0 ? round(slider1*slider2)/slider2 : slider1;

@block

while (msg.recv())
(
  msg.isNoteOn() && (
    output = rand(1);
    slider2>0 && output = round(output*slider2)/slider2;
    slider1 = output;
  );
  msg.send();
);
