desc: gianniMIDI wtf
s

// slider1:0<0,2,1{foo,bar,baz}>named options
// slider1:0<0,1,.01>output


import my-lib.jsfx-inc

@init


@block

while(msg.recv())
(
  msg.note() == 39 && msg.data1 = 40;
  msg.send();
);
