desc: WTF (GianniMIDI)

slider1:foo=5<0,10,1>foo
slider2:bar=5<0,10,1>foo

import my-lib.jsfx-inc

@init

foo.watch();
bar.watch();

@slider

bar.changed() ? foo = 2 * bar : foo.changed() && bar = 2 * foo;

// debug increases but slider is not forced to 5
// foo.changed() &&
// (
//   debug += 1;
//   foo != 5 && foo = 5;
// );

// works
// foo.prev != foo &&
// (
//   debug += 1;
//   foo.prev = foo;
//   foo != 5 && foo = 5;
// );

@block



