desc: delay

slider1:feedback=0<0,1,0.01>feedback
slider2:length=.5<0,1,0.01>length (seconds)


@slider

bufferSize = 2 * srate * length;


@sample

leftBuffer = buffer[i];
rightBuffer = buffer[i + 1];

leftOutput = leftBuffer + spl0;
rightOutput = rightBuffer + spl1;

buffer[i] = spl0 + (feedback * leftBuffer);
buffer[i + 1] = spl1 + (feedback * rightBuffer);

i < bufferSize ? i += 2 : i += (2 - bufferSize);

spl0 = (2 * rand()) - 1;
spl1 = spl0;
